src/pos-icons/home-heart.svg

<svg height="24" viewBox="0 0 24 24" width="24" xmlns="http://www.w3.org/2000/svg"><path d="m2 12 10-9 10 9h-3v8h-14v-8zm10 6 .72-.66c2.58-2.34 4.28-3.88 4.28-5.77 0-1.54-1.21-2.75-2.75-2.75-.87 0-1.7.41-2.25 1.05-.55-.64-1.38-1.05-2.25-1.05-1.54 0-2.75 1.21-2.75 2.75 0 1.89 1.7 3.43 4.28 5.77z"/></svg>

<?xml version="1.0" encoding="UTF-8"?><!DOCTYPE svg PUBLIC "-//W3C//DTD SVG 1.1//EN" "http://www.w3.org/Graphics/SVG/1.1/DTD/svg11.dtd"><svg xmlns="http://www.w3.org/2000/svg" xmlns:xlink="http://www.w3.org/1999/xlink" version="1.1" id="mdi-home-heart" width="24" height="24" viewBox="0 0 24 24"><path d="M2,12L12,3L22,12H19V20H5V12H2M12,18L12.72,17.34C15.3,15 17,13.46 17,11.57C17,10.03 15.79,8.82 14.25,8.82C13.38,8.82 12.55,9.23 12,9.87C11.45,9.23 10.62,8.82 9.75,8.82C8.21,8.82 7,10.03 7,11.57C7,13.46 8.7,15 11.28,17.34L12,18Z" /></svg>
